src/main/resources/icons/PhingIcons/icons/phing/phingToolWindow.svg

<svg xmlns="http://www.w3.org/2000/svg" width="13" height="13" viewBox="0 0 13 13">
  <path fill="#6E6E6E" d="M3.50730764,3.32014889 L3.00465957,1.85626591 L5.68839697,2.43258578 L7.48938298,0.370808463 L8.07842786,2.46191065 L8.13965957,2.43144676 L11.2043903,2.68478025 L11.21,2.68000007 L11.21,2.68524396 L11.2248085,2.68646804 L11.21,2.69907443 L11.21,4.15339289 L12.9167447,4.6841808 L10.8991114,6.98701368 L12.4562128,9.50814889 L12.4557236,9.50793196 L12.5003298,9.54991485 L10.1724901,9.54991485 L10.3208936,10.4506489 L8.56214154,10.062549 L6.00406383,12.8252234 L5.80022292,12.091401 L4.70468765,10.2245705 L2.25,10.0213512 L2.28495745,9.99156261 L2.28495745,8.67454307 L0.0625106383,8.05491485 L2.15311943,5.68688027 L0.997590213,3.33578973 L0.963659574,3.32014889 L0.989902949,3.32014889 L0.980000019,3.29999995 L1.02371033,3.32014889 L3.50730764,3.32014889 Z"/>
</svg>

<svg xmlns="http://www.w3.org/2000/svg" width="13" height="13" viewBox="0 0 13 13"><rect id="frame" width="13" height="13" fill="none"/><path fill="#6E6E6E" d="M3.507 3.32l-.502-1.464 2.683.577L7.49.37l.59 2.09.06-.03 3.065.254.006-.005v.005l.015.001-.015.013v1.454l1.707.531-2.018 2.303 1.557 2.521.044.042h-2.328l.149.9-1.759-.387-2.558 2.762-.204-.734-1.095-1.866-2.455-.204.035-.03V8.676l-2.222-.62 2.09-2.368L.998 3.336.964 3.32H.99L.98 3.3l.044.02h2.483z"/></svg>
